src/icons/raw/Heart.svg

<?xml version="1.0" encoding="UTF-8"?>
<svg width="18px" height="15px" viewBox="0 0 18 15" version="1.1" xmlns="http://www.w3.org/2000/svg" xmlns:xlink="http://www.w3.org/1999/xlink">
    <g id="Symbols" stroke="none" stroke-width="1" fill="none" fill-rule="evenodd">
        <g id="Icons-/-Heart-/-Empty" transform="translate(-3.000000, -5.000000)" stroke="#000000">
            <path d="M12.0025183,19.5000246 C12.0025282,19.5000248 12.0025381,19.5000251 12.002548,19.5000254 L12.0026603,19.4999333 C12.2138232,19.3641571 12.9950327,18.8520112 13.4133944,18.5638442 C14.3527214,17.916837 15.2759899,17.2278198 16.1381143,16.5099326 C17.5325711,15.3487744 18.6328172,14.2221397 19.3278462,13.1809257 C19.4484738,13.0002151 19.5560788,12.8231314 19.6472624,12.6556056 C20.5235669,10.9947099 20.7394403,9.35943542 20.214065,8.03975083 C19.8805905,7.03765048 19.0363859,6.21457264 17.9130677,5.74493262 C16.0876257,5.04765424 13.7111043,5.89683016 12.4034324,7.67688953 L12.0081174,8.21500927 L11.6030127,7.68422035 C10.285551,5.958015 8.07462844,5.08686962 6.15595563,5.755602 C5.06522027,6.09231407 4.25009588,6.93238755 3.77590023,8.16709008 C3.25975686,9.46133816 3.47911103,11.0967607 4.3442225,12.6384763 C4.58049196,13.0467253 4.90324034,13.4859126 5.30518654,13.9507588 C5.97241229,14.7223979 6.84009272,15.5455585 7.8660117,16.4028457 C9.13366292,17.4621313 11.5573299,19.2142616 11.9893819,19.5071762 C11.95024,19.533394 11.9693105,19.5213763 12.0025183,19.5000246 Z M11.9701846,19.5265571 C11.9620673,19.5321433 11.9536352,19.538735 11.9459247,19.5464456 L11.9701846,19.5265571 Z M11.9981363,19.4999995 C11.9630076,19.5235194 11.947702,19.5340626 11.9489483,19.5337343 C12.0402404,19.5416563 12.063502,19.5559168 12.0540326,19.5464472 C12.0360364,19.5284509 12.0041987,19.510542 11.9717465,19.5024289 C11.9609984,19.4997418 11.9656612,19.4999868 11.9981328,19.4999995 Z" id="Love-Selected-Copy-2"></path>
        </g>
    </g>
</svg>

<?xml version="1.0" encoding="UTF-8"?>
<svg version="1.1" width="18px" height="15px" viewBox="0 0 18 15" xmlns="http://www.w3.org/2000/svg">
<g fill="none" fill-rule="evenodd">
<g transform="translate(-3 -5)" stroke="#000">
<path d="m12.003 19.5c9.9e-6 2e-7 1.98e-5 5e-7 2.97e-5 8e-7l1.123e-4 -9.21e-5c0.21116-0.13578 0.99237-0.64792 1.4107-0.93609 0.93933-0.64701 1.8626-1.336 2.7247-2.0539 1.3945-1.1612 2.4947-2.2878 3.1897-3.329 0.12063-0.18071 0.22823-0.35779 0.31942-0.52532 0.8763-1.6609 1.0922-3.2962 0.5668-4.6159-0.33347-1.0021-1.1777-1.8252-2.301-2.2948-1.8254-0.69728-4.202 0.1519-5.5096 1.932l-0.39532 0.53812-0.4051-0.53079c-1.3175-1.7262-3.5284-2.5974-5.4471-1.9286-1.0907 0.33671-1.9059 1.1768-2.3801 2.4115-0.51614 1.2942-0.29679 2.9297 0.56832 4.4714 0.23627 0.40825 0.55902 0.84744 0.96096 1.3123 0.66723 0.77164 1.5349 1.5948 2.5608 2.4521 1.2677 1.0593 3.6913 2.8114 4.1234 3.1043-0.039142 0.026218-0.020071 0.0142 0.013136-0.0071516zm-0.032334 0.026532c-0.0081173 0.0055862-0.016549 0.012178-0.02426 0.019888l0.02426-0.019888zm0.027952-0.026558c-0.035129 0.02352-0.050434 0.034063-0.049188 0.033735 0.091292 0.007922 0.11455 0.022182 0.10508 0.012713-0.017996-0.017996-0.049834-0.035905-0.082286-0.044018-0.010748-0.0026871-0.0060853-0.0024421 0.026386-0.0024294z"/>
</g>
</g>
</svg>
